X: 17136
T: Hell On The Mountain
R: jig
M: 6/8
K: Amixolydian
eAA Acd|efe gfe|dBA G2 G|BGB dcd|
eAA Acd|efe gfe|def gdB|A3 A3:|
aaa age|aba age|def gfe|ede gfg|
aaa age|bge age|def gdB|A3 A3:|

